X: 15395
T: Glass Too Much, The
R: jig
M: 6/8
K: Gmajor
|BcA B2A|GEE E2G|DEG BAG|BAA AGA|BcA B2A|GEE EGE|DEG BcA|BGG G2A:|:
Bde~g3|aba ged|Bde d2c|Bdd BAG|DEG AAA|cBA B2A|BdB AGA|BGG G2A:|

